X:1
T:Andrews, CM
T:Andrews, CM
T:John Black (1817-1871)
T:Public Domain Courtesy of the Cyber Hymnal™
C:John Black (1817-1871)
Z:Public Domain
Z:Courtesy of the Cyber Hymnal™
%%score ( 1 2 ) ( 3 4 )
L:1/8
Q:1/4=105
M:3/4
K:D
V:1 treble 
V:2 treble 
V:3 bass 
V:4 bass 
V:1
 [FA]2 | [EG][DF] [DB]2 [Gc]2 | [Fd][DF] [CE]2 [^DF]2 | [EG][EG] [EA]2 [CE]2 | [DF]4 [DA]2 | %5
 [DB][DA] [Gc]2 [Fd]2 | [Ee][CG] [DF]2 [DB]2 | [DA][DF] [DE]2 [CE]2 | D4 |] %9
V:2
 x2 | x6 | x6 | x6 | x6 | x6 | x6 | x6 | D4 |] %9
V:3
 [D,A,]2 | [D,A,][D,A,] G,2 [E,A,]2 | [D,A,][F,A,] A,2 [F,A,]2 | [E,B,][D,B,] [C,A,]2 [A,,A,]2 | %4
 [D,A,]4 [F,A,]2 | G,[F,A,] [E,A,]2 [D,A,]2 | [C,A,][A,,A,] [D,A,]2 G,2 | %7
 [F,A,][D,B,] [G,,B,]2 (A,G,) | [D,F,]4 |] %9
V:4
 x2 | x2 G,2 x2 | x2 A,2 x2 | x6 | x6 | G, x5 | x4 G,2 | x4 A,,2 | x4 |] %9

